X:1
T:Bottom of the Punchbow
C:harmony by M. Koth
M:C|
L:1/8
K:D
V:RH clef=treble staves=2 brace=2
V:LH clef=treble
[V:RH]|:FE|"D"D2A2d3c|d2A2 FGAF|"Em"E2 e2 efgf|"A"edcB AGFE|
[V:LH]|:FE|D2F2A3e|f2d2 AGFA|B2e2 gfef|gfed cBAG|
%
[V:RH]"D"D2 A2 d3 (e|fe)dc d3 (A|"G"Bc)d(B "A"AB)AG|"D"F2 D2 D2:|
[V:LH]A2d2 f3 (e|fg)fe f3 (A|dc)B(d ed)cB|A2F2D2:|
